src/Components/Landing/assets/Group.svg

<svg width="522" height="507" fill="none" xmlns="http://www.w3.org/2000/svg"><path d="M153.833 77.425l26.517 32.571-6.049 4.925-22.35-27.453-17.03 13.864-4.167-5.118 23.079-18.789zM127.21 134.066l-11.68 17.307-5.321-3.591 11.68-17.308 5.321 3.592zm-15.256-9.572l-13.257 19.645-5.421-3.658 17.62-26.111 34.814 23.494-17.15 25.415-5.421-3.659 12.787-18.949-23.972-16.177zM80.275 158.558l35.317 29.562-2.078 7.393-45.564 6.886 2.208-7.856 40.848-5.407-.844 3.004-32.063-25.842 2.176-7.74zm7.003 11.006l5.323 3.678-6.138 21.834-6.46.365 7.275-25.877zM62.533 229.564l41.933-2.374.977 17.253c.21 3.714-.209 6.922-1.258 9.626-1.047 2.744-2.648 4.897-4.803 6.462-2.155 1.564-4.77 2.433-7.845 2.607-3.075.174-5.772-.394-8.09-1.705-2.277-1.314-4.09-3.274-5.44-5.882-1.308-2.571-2.066-5.713-2.277-9.427l-.732-12.939 3.731 3.274-15.755.892-.44-7.787zM64.087 257l14.616-11.465.471 8.327-14.612 11.524-.475-8.386zm13.804-20.493l3.518-3.685.712 12.58c.194 3.435 1.079 5.969 2.654 7.602 1.577 1.674 3.683 2.436 6.319 2.287 2.676-.152 4.683-1.147 6.02-2.985 1.341-1.799 1.914-4.415 1.72-7.85l-.712-12.58 4.031 3.258-24.262 1.373zM67.057 293.167l38.594-16.568 2.533 5.899-19.327 36.961-1.254-2.922 29.717-12.757 3.053 7.112-38.594 16.568-2.532-5.899L98.574 284.6l1.254 2.922-29.717 12.757-3.054-7.112zM102.408 363.09c-.849-1.063-1.213-2.257-1.093-3.581.152-1.349.79-2.473 1.915-3.371 1.188-.948 2.426-1.322 3.712-1.12 1.318.176 2.401.796 3.25 1.858.848 1.063 1.212 2.257 1.092 3.581-.089 1.299-.727 2.423-1.915 3.371-1.125.899-2.363 1.272-3.712 1.121-1.318-.177-2.401-.796-3.249-1.859zM134.647 397.589c-2.574-1.902-4.661-4.091-6.263-6.567-1.546-2.485-2.569-5.106-3.069-7.862-.443-2.765-.331-5.542.337-8.331.668-2.789 1.929-5.438 3.783-7.947 1.854-2.51 4.016-4.493 6.485-5.951 2.47-1.458 5.096-2.353 7.877-2.684 2.806-.365 5.611-.157 8.417.623 2.829.748 5.547 2.085 8.153 4.01 2.767 2.044 4.936 4.393 6.507 7.045 1.594 2.621 2.491 5.447 2.688 8.477l-6.87.818c-.248-2.223-.89-4.214-1.927-5.975-1.013-1.792-2.404-3.343-4.173-4.65-1.77-1.307-3.608-2.218-5.516-2.732a14.406 14.406 0 00-5.631-.356c-1.846.277-3.609.914-5.29 1.91-1.649 1.02-3.115 2.398-4.399 4.135-1.283 1.738-2.17 3.544-2.661 5.42-.458 1.899-.549 3.772-.272 5.618.31 1.87.975 3.629 1.994 5.278 1.052 1.672 2.463 3.162 4.232 4.469 1.77 1.308 3.648 2.198 5.636 2.672 2.011.442 4.127.439 6.348-.009l1.201 6.855c-2.931.669-5.896.642-8.893-.08-2.997-.723-5.895-2.118-8.694-4.186zM196.638 432.511c-3.162-.872-5.93-2.195-8.304-3.97-2.373-1.774-4.288-3.858-5.745-6.251a20.811 20.811 0 01-2.751-7.854c-.378-2.843-.153-5.768.676-8.776.829-3.008 2.129-5.616 3.9-7.825 1.782-2.247 3.911-4.025 6.388-5.334 2.487-1.347 5.205-2.175 8.153-2.482 2.947-.308 5.983-.031 9.106.83 3.162.871 5.911 2.189 8.246 3.953 2.374 1.775 4.284 3.878 5.729 6.31 1.457 2.393 2.374 5.011 2.752 7.854.389 2.804.168 5.71-.661 8.718-.829 3.007-2.134 5.635-3.916 7.882-1.781 2.248-3.91 4.026-6.387 5.335-2.477 1.308-5.189 2.117-8.137 2.424-2.909.319-5.926.047-9.049-.814zm1.76-6.61c2.044.564 4.029.737 5.956.522 1.926-.216 3.701-.785 5.325-1.706a14.605 14.605 0 004.193-3.699c1.211-1.533 2.104-3.341 2.678-5.423.574-2.083.729-4.073.464-5.972-.216-1.926-.785-3.701-1.706-5.325a13.355 13.355 0 00-3.683-4.251c-1.544-1.173-3.338-2.041-5.381-2.604-2.044-.564-4.029-.738-5.956-.522a14.146 14.146 0 00-5.341 1.764c-1.623.922-3.04 2.149-4.251 3.683-1.162 1.505-2.03 3.299-2.604 5.381-.564 2.044-.738 4.029-.522 5.956a15.245 15.245 0 001.748 5.398c.922 1.624 2.155 3.022 3.699 4.194 1.543 1.173 3.337 2.041 5.381 2.604zM250.378 444.387l-4.123-41.797 18.271-1.803c4.538-.447 8.605.036 12.201 1.449 3.596 1.414 6.503 3.579 8.72 6.496 2.217 2.916 3.534 6.484 3.95 10.704.412 4.179-.182 7.936-1.782 11.269-1.605 3.294-4.032 5.985-7.283 8.074-3.25 2.089-7.145 3.358-11.683 3.805l-18.271 1.803zm7.114-7.334l10.151-1.001c3.145-.311 5.793-1.175 7.944-2.593 2.191-1.422 3.797-3.268 4.819-5.54 1.062-2.275 1.452-4.846 1.169-7.712-.287-2.906-1.171-5.351-2.653-7.335-1.446-2.027-3.382-3.525-5.809-4.491-2.387-.97-5.153-1.301-8.297-.99l-10.151 1.001 2.827 28.661zM318.094 409.084l18.988-8.684 2.67 5.838-18.988 8.684-2.67-5.838zm8.031 16.119l21.554-9.856 2.719 5.947-28.646 13.101-17.468-38.195 27.883-12.752 2.72 5.948-20.789 9.507 12.027 26.3zM377.547 405.21c-1.074.834-2.272 1.182-3.595 1.045-1.347-.17-2.462-.823-3.345-1.96-.933-1.201-1.29-2.443-1.071-3.727.194-1.315.828-2.39 1.902-3.224 1.074-.834 2.272-1.183 3.595-1.045 1.298.106 2.413.76 3.345 1.96.883 1.137 1.24 2.379 1.071 3.726-.194 1.316-.828 2.391-1.902 3.225zM411.618 374.634c-3.467 4.6-7.481 7.234-12.043 7.903-4.538.636-9.25-.887-14.137-4.571l-18.925-14.267 4.696-6.229 18.685 14.087c3.45 2.6 6.511 3.756 9.183 3.466 2.697-.321 5.069-1.839 7.116-4.554 2.046-2.715 2.841-5.397 2.384-8.046-.458-2.649-2.411-5.274-5.861-7.875l-18.685-14.086 4.623-6.133 18.925 14.267c4.887 3.684 7.636 7.811 8.249 12.381.637 4.537-.766 9.09-4.21 13.657zM442.251 328.462l-40.116-12.439 5.118-16.505c1.102-3.553 2.617-6.413 4.545-8.579 1.94-2.204 4.193-3.662 6.758-4.374 2.566-.712 5.32-.612 8.262.3 2.942.912 5.269 2.388 6.982 4.427 1.713 2.038 2.746 4.515 3.099 7.431.364 2.876-.005 6.092-1.107 9.645l-3.838 12.378-2.465-4.408 15.072 4.674-2.31 7.45zm-11.96-11.875l-4.641 2.204 3.732-12.034c1.019-3.286 1.095-5.963.229-8.033-.892-2.119-2.599-3.57-5.121-4.352-2.559-.793-4.788-.563-6.684.692-1.885 1.216-3.337 3.467-4.356 6.753l-3.731 12.034-2.638-4.461 23.21 7.197zM459.781 253.622c.074 3.279-.315 6.429-1.167 9.449-.892 3.021-2.058 5.427-3.498 7.22l-6.119-2.562c1.281-1.709 2.334-3.814 3.158-6.313a22.64 22.64 0 001.148-7.648c-.05-2.199-.33-3.973-.841-5.322-.51-1.349-1.173-2.334-1.987-2.956a4.534 4.534 0 00-2.841-.896c-1.279.029-2.289.512-3.028 1.448-.779.938-1.372 2.152-1.778 3.642a48.939 48.939 0 00-1.21 4.888 95.434 95.434 0 01-1.259 5.37 25.471 25.471 0 01-1.99 4.906 10.895 10.895 0 01-3.399 3.618c-1.419.952-3.248 1.453-5.488 1.504-2.279.051-4.372-.502-6.279-1.659-1.947-1.196-3.509-3.021-4.684-5.475-1.217-2.494-1.869-5.66-1.955-9.499a29.88 29.88 0 01.79-7.519c.584-2.494 1.455-4.675 2.613-6.541l6.114 2.322c-1.077 1.905-1.853 3.863-2.328 5.875-.515 2.012-.751 3.937-.71 5.777.049 2.159.349 3.913.899 5.261.55 1.308 1.252 2.272 2.106 2.893.853.581 1.82.859 2.9.835 1.279-.029 2.309-.492 3.089-1.39.739-.937 1.312-2.13 1.72-3.58.406-1.489.809-3.139 1.208-4.948.36-1.809.779-3.599 1.26-5.37.479-1.811 1.122-3.446 1.929-4.905a9.677 9.677 0 013.34-3.616c1.418-.952 3.228-1.453 5.427-1.503 2.239-.051 4.333.522 6.28 1.719 1.907 1.157 3.469 2.982 4.685 5.475 1.177 2.494 1.808 5.661 1.895 9.5zM444.614 199.479l-8.538 3.559-29.018-12.861-3-8.231 24.532 10.537 5.932 2.436 10.092 4.56zm11.685 3.149l-39.461 14.382-2.671-7.328 39.461-14.382 2.671 7.328zm-10.027-27.51l-12.476 21.662-7.123-2.896 16.476-27.334 3.123 8.568zM429.492 140.698l-34.854 23.434-4.352-6.473 34.854-23.434 4.352 6.473zM413.408 116.614l-28.888 30.487-5.662-5.365 24.348-25.696-15.94-15.104 4.539-4.791 21.603 20.469zM371 78.854l-19.094 37.409-6.948-3.546 16.094-31.53-19.56-9.984 3.001-5.878L371 78.855z" fill="#fff"/></svg>

<svg width="522" height="507" viewBox="0 0 522 507" fill="none" xmlns="http://www.w3.org/2000/svg">
<path d="M153.833 77.4252L180.35 109.996L174.301 114.921L151.951 87.468L134.921 101.332L130.754 96.2141L153.833 77.4252Z" fill="white"/>
<path d="M127.21 134.066L115.53 151.373L110.209 147.782L121.889 130.474L127.21 134.066ZM111.954 124.494L98.6968 144.139L93.2757 140.481L110.896 114.37L145.71 137.864L128.56 163.279L123.139 159.62L135.926 140.671L111.954 124.494Z" fill="white"/>
<path d="M80.275 158.558L115.592 188.12L113.514 195.513L67.95 202.399L70.1584 194.543L111.006 189.136L110.162 192.14L78.0991 166.298L80.275 158.558ZM87.2777 169.564L92.601 173.242L86.4628 195.076L80.0028 195.441L87.2777 169.564Z" fill="white"/>
<path d="M62.5335 229.564L104.466 227.19L105.443 244.443C105.653 248.157 105.234 251.365 104.185 254.069C103.138 256.813 101.537 258.966 99.3822 260.531C97.2272 262.095 94.6121 262.964 91.5371 263.138C88.462 263.312 85.7655 262.744 83.4477 261.433C81.1699 260.119 79.3562 258.159 78.0067 255.551C76.6993 252.98 75.9406 249.838 75.7304 246.124L74.998 233.185L78.729 236.459L62.9742 237.351L62.5335 229.564ZM64.0863 257L78.7018 245.535L79.1731 253.862L64.561 265.386L64.0863 257ZM77.8903 236.507L81.4078 232.822L82.1198 245.402C82.3142 248.837 83.1988 251.371 84.7736 253.004C86.3507 254.678 88.4571 255.44 91.0929 255.291C93.7686 255.139 95.7756 254.144 97.1138 252.306C98.4543 250.507 99.0274 247.891 98.833 244.456L98.121 231.876L102.152 235.134L77.8903 236.507Z" fill="white"/>
<path d="M67.0574 293.167L105.651 276.599L108.184 282.498L88.8572 319.459L87.6027 316.537L117.32 303.78L120.373 310.892L81.7794 327.46L79.2469 321.561L98.5736 284.6L99.828 287.522L70.1107 300.279L67.0574 293.167Z" fill="white"/>
<path d="M102.408 363.09C101.559 362.027 101.195 360.833 101.315 359.509C101.467 358.16 102.105 357.036 103.23 356.138C104.418 355.19 105.656 354.816 106.942 355.018C108.26 355.194 109.343 355.814 110.192 356.876C111.04 357.939 111.404 359.133 111.284 360.457C111.195 361.756 110.557 362.88 109.369 363.828C108.244 364.727 107.006 365.1 105.657 364.949C104.339 364.772 103.256 364.153 102.408 363.09Z" fill="white"/>
<path d="M134.647 397.589C132.073 395.687 129.986 393.498 128.384 391.022C126.838 388.537 125.815 385.916 125.315 383.16C124.872 380.395 124.984 377.618 125.652 374.829C126.32 372.04 127.581 369.391 129.435 366.882C131.289 364.372 133.451 362.389 135.92 360.931C138.39 359.473 141.016 358.578 143.797 358.247C146.603 357.882 149.408 358.09 152.214 358.87C155.043 359.618 157.761 360.955 160.367 362.88C163.134 364.924 165.303 367.273 166.874 369.925C168.468 372.546 169.365 375.372 169.562 378.402L162.692 379.22C162.444 376.997 161.802 375.006 160.765 373.245C159.752 371.453 158.361 369.902 156.592 368.595C154.822 367.288 152.984 366.377 151.076 365.863C149.201 365.372 147.324 365.253 145.445 365.507C143.599 365.784 141.836 366.421 140.155 367.417C138.506 368.437 137.04 369.815 135.756 371.552C134.473 373.29 133.586 375.096 133.095 376.972C132.637 378.871 132.546 380.744 132.823 382.59C133.133 384.46 133.798 386.219 134.817 387.868C135.869 389.54 137.28 391.03 139.049 392.337C140.819 393.645 142.697 394.535 144.685 395.009C146.696 395.451 148.812 395.448 151.033 395L152.234 401.855C149.303 402.524 146.338 402.497 143.341 401.775C140.344 401.052 137.446 399.657 134.647 397.589Z" fill="white"/>
<path d="M196.638 432.511C193.476 431.639 190.708 430.316 188.334 428.541C185.961 426.767 184.046 424.683 182.589 422.29C181.144 419.858 180.226 417.24 179.838 414.436C179.46 411.593 179.685 408.668 180.514 405.66C181.343 402.652 182.643 400.044 184.414 397.835C186.196 395.588 188.325 393.81 190.802 392.501C193.289 391.154 196.007 390.326 198.955 390.019C201.902 389.711 204.938 389.988 208.061 390.849C211.223 391.72 213.972 393.038 216.307 394.802C218.681 396.577 220.591 398.68 222.036 401.112C223.493 403.505 224.41 406.123 224.788 408.966C225.177 411.77 224.956 414.676 224.127 417.684C223.298 420.691 221.993 423.319 220.211 425.566C218.43 427.814 216.301 429.592 213.824 430.901C211.347 432.209 208.635 433.018 205.687 433.325C202.778 433.644 199.761 433.372 196.638 432.511ZM198.398 425.901C200.442 426.465 202.427 426.638 204.354 426.423C206.28 426.207 208.055 425.638 209.679 424.717C211.313 423.756 212.71 422.523 213.872 421.018C215.083 419.485 215.976 417.677 216.55 415.595C217.124 413.512 217.279 411.522 217.014 409.623C216.798 407.697 216.229 405.922 215.308 404.298C214.396 402.636 213.169 401.219 211.625 400.047C210.081 398.874 208.287 398.006 206.244 397.443C204.2 396.879 202.215 396.705 200.288 396.921C198.4 397.148 196.62 397.736 194.947 398.685C193.324 399.607 191.907 400.834 190.696 402.368C189.534 403.873 188.666 405.667 188.092 407.749C187.528 409.793 187.354 411.778 187.57 413.705C187.824 415.642 188.407 417.442 189.318 419.103C190.24 420.727 191.473 422.125 193.017 423.297C194.56 424.47 196.354 425.338 198.398 425.901Z" fill="white"/>
<path d="M250.378 444.387L246.255 402.59L264.526 400.787C269.064 400.34 273.131 400.823 276.727 402.236C280.323 403.65 283.23 405.815 285.447 408.732C287.664 411.648 288.981 415.216 289.397 419.436C289.809 423.615 289.215 427.372 287.615 430.705C286.01 433.999 283.583 436.69 280.332 438.779C277.082 440.868 273.187 442.137 268.649 442.584L250.378 444.387ZM257.492 437.053L267.643 436.052C270.788 435.741 273.436 434.877 275.587 433.459C277.778 432.037 279.384 430.191 280.406 427.919C281.468 425.644 281.858 423.073 281.575 420.207C281.288 417.301 280.404 414.856 278.922 412.872C277.476 410.845 275.54 409.347 273.113 408.381C270.726 407.411 267.96 407.08 264.816 407.391L254.665 408.392L257.492 437.053Z" fill="white"/>
<path d="M318.094 409.084L337.082 400.4L339.752 406.238L320.764 414.922L318.094 409.084ZM326.125 425.203L347.679 415.347L350.398 421.294L321.752 434.395L304.284 396.2L332.167 383.448L334.887 389.396L314.098 398.903L326.125 425.203Z" fill="white"/>
<path d="M377.547 405.21C376.473 406.044 375.275 406.392 373.952 406.255C372.605 406.085 371.49 405.432 370.607 404.295C369.674 403.094 369.317 401.852 369.536 400.568C369.73 399.253 370.364 398.178 371.438 397.344C372.512 396.51 373.71 396.161 375.033 396.299C376.331 396.405 377.446 397.059 378.378 398.259C379.261 399.396 379.618 400.638 379.449 401.985C379.255 403.301 378.621 404.376 377.547 405.21Z" fill="white"/>
<path d="M411.618 374.634C408.151 379.234 404.137 381.868 399.575 382.537C395.037 383.173 390.325 381.65 385.438 377.966L366.513 363.699L371.209 357.47L389.894 371.557C393.344 374.157 396.405 375.313 399.077 375.023C401.774 374.702 404.146 373.184 406.193 370.469C408.239 367.754 409.034 365.072 408.577 362.423C408.119 359.774 406.166 357.149 402.716 354.548L384.031 340.462L388.654 334.329L407.579 348.596C412.466 352.28 415.215 356.407 415.828 360.977C416.465 365.514 415.062 370.067 411.618 374.634Z" fill="white"/>
<path d="M442.251 328.462L402.135 316.023L407.253 299.518C408.355 295.965 409.87 293.105 411.798 290.939C413.738 288.735 415.991 287.277 418.556 286.565C421.122 285.853 423.876 285.953 426.818 286.865C429.76 287.777 432.087 289.253 433.8 291.292C435.513 293.33 436.546 295.807 436.899 298.723C437.263 301.599 436.894 304.815 435.792 308.368L431.954 320.746L429.489 316.338L444.561 321.012L442.251 328.462ZM430.291 316.587L425.65 318.791L429.382 306.757C430.401 303.471 430.477 300.794 429.611 298.724C428.719 296.605 427.012 295.154 424.49 294.372C421.931 293.579 419.702 293.809 417.806 295.064C415.921 296.28 414.469 298.531 413.45 301.817L409.719 313.851L407.081 309.39L430.291 316.587Z" fill="white"/>
<path d="M459.781 253.622C459.855 256.901 459.466 260.051 458.614 263.071C457.722 266.092 456.556 268.498 455.116 270.291L448.997 267.729C450.278 266.02 451.331 263.915 452.155 261.416C452.979 258.917 453.361 256.367 453.303 253.768C453.253 251.569 452.973 249.795 452.462 248.446C451.952 247.097 451.289 246.112 450.475 245.49C449.621 244.869 448.674 244.57 447.634 244.594C446.355 244.623 445.345 245.106 444.606 246.042C443.827 246.98 443.234 248.194 442.828 249.684C442.38 251.134 441.977 252.764 441.618 254.572C441.258 256.341 440.838 258.131 440.359 259.942C439.839 261.714 439.175 263.349 438.369 264.848C437.522 266.308 436.389 267.513 434.97 268.466C433.551 269.418 431.722 269.919 429.482 269.97C427.203 270.021 425.11 269.468 423.203 268.311C421.256 267.115 419.694 265.29 418.519 262.836C417.302 260.342 416.65 257.176 416.564 253.337C416.507 250.818 416.77 248.311 417.354 245.818C417.938 243.324 418.809 241.143 419.967 239.277L426.081 241.599C425.004 243.504 424.228 245.462 423.753 247.474C423.238 249.486 423.002 251.411 423.043 253.251C423.092 255.41 423.392 257.164 423.942 258.512C424.492 259.82 425.194 260.784 426.048 261.405C426.901 261.986 427.868 262.264 428.948 262.24C430.227 262.211 431.257 261.748 432.037 260.85C432.776 259.913 433.349 258.72 433.757 257.27C434.163 255.781 434.566 254.131 434.965 252.322C435.325 250.513 435.744 248.723 436.225 246.952C436.704 245.141 437.347 243.506 438.154 242.047C438.961 240.548 440.074 239.343 441.494 238.431C442.912 237.479 444.722 236.978 446.921 236.928C449.16 236.877 451.254 237.45 453.201 238.647C455.108 239.804 456.67 241.629 457.886 244.122C459.063 246.616 459.694 249.783 459.781 253.622Z" fill="white"/>
<path d="M444.614 199.479L436.076 203.038L407.058 190.177L404.058 181.946L428.59 192.483L434.522 194.919L444.614 199.479ZM456.299 202.628L416.838 217.01L414.167 209.682L453.628 195.3L456.299 202.628ZM446.272 175.118L433.796 196.78L426.673 193.884L443.149 166.55L446.272 175.118Z" fill="white"/>
<path d="M429.492 140.698L394.638 164.132L390.286 157.659L425.14 134.225L429.492 140.698Z" fill="white"/>
<path d="M413.408 116.614L384.52 147.101L378.858 141.736L403.206 116.04L387.266 100.936L391.805 96.1446L413.408 116.614Z" fill="white"/>
<path d="M371 78.8542L351.906 116.263L344.958 112.717L361.052 81.1867L341.492 71.2034L344.493 65.3248L371 78.8542Z" fill="white"/>
</svg>
